static/img/kroki/977aa3d4016c0d4a7315a643726dc06e.svg

<?xml version="1.0" encoding="us-ascii" standalone="no"?><svg xmlns="http://www.w3.org/2000/svg" xmlns:xlink="http://www.w3.org/1999/xlink" contentStyleType="text/css" height="451px" preserveAspectRatio="none" style="width:604px;height:451px;" version="1.1" viewBox="0 0 604 451" width="604px" zoomAndPan="magnify"><defs/><g><!--class aws_ec2_instance--><g id="elem_aws_ec2_instance"><rect codeLine="22" fill="#3D176E" height="39.7891" id="aws_ec2_instance" rx="2.5" ry="2.5" style="stroke:#000D19;stroke-width:0.5;" width="192" x="7" y="106.79"/><ellipse cx="22" cy="126.6845" fill="#ADD1B2" rx="11" ry="11" style="stroke:#181818;stroke-width:1.0;"/><path d="M24.9688,132.3252 Q24.3906,132.622 23.75,132.7627 Q23.1094,132.9189 22.4063,132.9189 Q19.9063,132.9189 18.5781,131.2783 Q17.2656,129.622 17.2656,126.497 Q17.2656,123.372 18.5781,121.7158 Q19.9063,120.0595 22.4063,120.0595 Q23.1094,120.0595 23.75,120.2158 Q24.4063,120.372 24.9688,120.6689 L24.9688,123.3877 Q24.3438,122.8095 23.75,122.5439 Q23.1563,122.2627 22.5313,122.2627 Q21.1875,122.2627 20.5,123.3408 Q19.8125,124.4033 19.8125,126.497 Q19.8125,128.5908 20.5,129.6689 Q21.1875,130.7314 22.5313,130.7314 Q23.1563,130.7314 23.75,130.4658 Q24.3438,130.1845 24.9688,129.6064 L24.9688,132.3252 Z " fill="#000000"/><text fill="#D9B8FF" font-family="Helvetica" font-size="17" lengthAdjust="spacing" textLength="150" x="41" y="132.5698">aws_ec2_instance</text></g><!--class aws_ec2_snapshot--><g id="elem_aws_ec2_snapshot"><rect codeLine="24" fill="#3D176E" height="39.7891" id="aws_ec2_snapshot" rx="2.5" ry="2.5" style="stroke:#000D19;stroke-width:0.5;" width="197" x="388.5" y="306.37"/><ellipse cx="403.5" cy="326.2645" fill="#ADD1B2" rx="11" ry="11" style="stroke:#181818;stroke-width:1.0;"/><path d="M406.4688,331.9052 Q405.8906,332.202 405.25,332.3427 Q404.6094,332.4989 403.9063,332.4989 Q401.4063,332.4989 400.0781,330.8583 Q398.7656,329.202 398.7656,326.077 Q398.7656,322.952 400.0781,321.2958 Q401.4063,319.6395 403.9063,319.6395 Q404.6094,319.6395 405.25,319.7958 Q405.9063,319.952 406.4688,320.2489 L406.4688,322.9677 Q405.8438,322.3895 405.25,322.1239 Q404.6563,321.8427 404.0313,321.8427 Q402.6875,321.8427 402,322.9208 Q401.3125,323.9833 401.3125,326.077 Q401.3125,328.1708 402,329.2489 Q402.6875,330.3114 404.0313,330.3114 Q404.6563,330.3114 405.25,330.0458 Q405.8438,329.7645 406.4688,329.1864 L406.4688,331.9052 Z " fill="#000000"/><text fill="#D9B8FF" font-family="Helvetica" font-size="17" lengthAdjust="spacing" textLength="155" x="422.5" y="332.1498">aws_ec2_snapshot</text></g><!--class aws_ec2_volume--><g id="elem_aws_ec2_volume"><rect codeLine="26" fill="#3D176E" height="39.7891" id="aws_ec2_volume" rx="2.5" ry="2.5" style="stroke:#000D19;stroke-width:0.5;" width="185" x="243.5" y="206.58"/><ellipse cx="258.5" cy="226.4745" fill="#ADD1B2" rx="11" ry="11" style="stroke:#181818;stroke-width:1.0;"/><path d="M261.4688,232.1152 Q260.8906,232.412 260.25,232.5527 Q259.6094,232.7089 258.9063,232.7089 Q256.4063,232.7089 255.0781,231.0683 Q253.7656,229.412 253.7656,226.287 Q253.7656,223.162 255.0781,221.5058 Q256.4063,219.8495 258.9063,219.8495 Q259.6094,219.8495 260.25,220.0058 Q260.9063,220.162 261.4688,220.4589 L261.4688,223.1777 Q260.8438,222.5995 260.25,222.3339 Q259.6563,222.0527 259.0313,222.0527 Q257.6875,222.0527 257,223.1308 Q256.3125,224.1933 256.3125,226.287 Q256.3125,228.3808 257,229.4589 Q257.6875,230.5214 259.0313,230.5214 Q259.6563,230.5214 260.25,230.2558 Q260.8438,229.9745 261.4688,229.3964 L261.4688,232.1152 Z " fill="#000000"/><text fill="#D9B8FF" font-family="Helvetica" font-size="17" lengthAdjust="spacing" textLength="143" x="277.5" y="232.3598">aws_ec2_volume</text></g><!--class aws_ec2_volume_type--><g id="elem_aws_ec2_volume_type"><rect codeLine="28" fill="#3D176E" height="39.7891" id="aws_ec2_volume_type" rx="2.5" ry="2.5" style="stroke:#000D19;stroke-width:0.5;" width="231" x="304.5" y="106.79"/><ellipse cx="319.5" cy="126.6845" fill="#ADD1B2" rx="11" ry="11" style="stroke:#181818;stroke-width:1.0;"/><path d="M322.4688,132.3252 Q321.8906,132.622 321.25,132.7627 Q320.6094,132.9189 319.9063,132.9189 Q317.4063,132.9189 316.0781,131.2783 Q314.7656,129.622 314.7656,126.497 Q314.7656,123.372 316.0781,121.7158 Q317.4063,120.0595 319.9063,120.0595 Q320.6094,120.0595 321.25,120.2158 Q321.9063,120.372 322.4688,120.6689 L322.4688,123.3877 Q321.8438,122.8095 321.25,122.5439 Q320.6563,122.2627 320.0313,122.2627 Q318.6875,122.2627 318,123.3408 Q317.3125,124.4033 317.3125,126.497 Q317.3125,128.5908 318,129.6689 Q318.6875,130.7314 320.0313,130.7314 Q320.6563,130.7314 321.25,130.4658 Q321.8438,130.1845 322.4688,129.6064 L322.4688,132.3252 Z " fill="#000000"/><text fill="#D9B8FF" font-family="Helvetica" font-size="17" lengthAdjust="spacing" textLength="189" x="338.5" y="132.5698">aws_ec2_volume_type</text></g><!--class aws_kms_key--><g id="elem_aws_kms_key"><rect codeLine="30" fill="#3D176E" height="39.7891" id="aws_kms_key" rx="2.5" ry="2.5" style="stroke:#000D19;stroke-width:0.5;" width="158" x="332" y="406.16"/><ellipse cx="347" cy="426.0545" fill="#ADD1B2" rx="11" ry="11" style="stroke:#181818;stroke-width:1.0;"/><path d="M349.9688,431.6952 Q349.3906,431.992 348.75,432.1327 Q348.1094,432.2889 347.4063,432.2889 Q344.9063,432.2889 343.5781,430.6483 Q342.2656,428.992 342.2656,425.867 Q342.2656,422.742 343.5781,421.0858 Q344.9063,419.4295 347.4063,419.4295 Q348.1094,419.4295 348.75,419.5858 Q349.4063,419.742 349.9688,420.0389 L349.9688,422.7577 Q349.3438,422.1795 348.75,421.9139 Q348.1563,421.6327 347.5313,421.6327 Q346.1875,421.6327 345.5,422.7108 Q344.8125,423.7733 344.8125,425.867 Q344.8125,427.9608 345.5,429.0389 Q346.1875,430.1014 347.5313,430.1014 Q348.1563,430.1014 348.75,429.8358 Q349.3438,429.5545 349.9688,428.9764 L349.9688,431.6952 Z " fill="#000000"/><text fill="#D9B8FF" font-family="Helvetica" font-size="17" lengthAdjust="spacing" textLength="116" x="366" y="431.9398">aws_kms_key</text></g><!--class aws_region--><g id="elem_aws_region"><rect codeLine="32" fill="#3D176E" height="39.7891" id="aws_region" rx="2.5" ry="2.5" style="stroke:#000D19;stroke-width:0.5;" width="137" x="267.5" y="7"/><ellipse cx="282.5" cy="26.8945" fill="#ADD1B2" rx="11" ry="11" style="stroke:#181818;stroke-width:1.0;"/><path d="M285.4688,32.5352 Q284.8906,32.832 284.25,32.9727 Q283.6094,33.1289 282.9063,33.1289 Q280.4063,33.1289 279.0781,31.4883 Q277.7656,29.832 277.7656,26.707 Q277.7656,23.582 279.0781,21.9258 Q280.4063,20.2695 282.9063,20.2695 Q283.6094,20.2695 284.25,20.4258 Q284.9063,20.582 285.4688,20.8789 L285.4688,23.5977 Q284.8438,23.0195 284.25,22.7539 Q283.6563,22.4727 283.0313,22.4727 Q281.6875,22.4727 281,23.5508 Q280.3125,24.6133 280.3125,26.707 Q280.3125,28.8008 281,29.8789 Q281.6875,30.9414 283.0313,30.9414 Q283.6563,30.9414 284.25,30.6758 Q284.8438,30.3945 285.4688,29.8164 L285.4688,32.5352 Z " fill="#000000"/><text fill="#D9B8FF" font-family="Helvetica" font-size="17" lengthAdjust="spacing" textLength="95" x="301.5" y="32.7798">aws_region</text></g><!--link aws_ec2_instance to aws_ec2_volume--><g id="link_aws_ec2_instance_aws_ec2_volume"><path codeLine="34" d="M149.03,147.01 C189.88,164.15 243.7074,186.7483 284.5274,203.8783 " fill="none" id="aws_ec2_instance-to-aws_ec2_volume" style="stroke:#1A83AF;stroke-width:2.0;"/><polygon fill="#1A83AF" points="290.06,206.2,283.3089,199.029,285.4495,204.2652,280.2133,206.4058,290.06,206.2" style="stroke:#1A83AF;stroke-width:2.0;"/></g><!--link aws_ec2_snapshot to aws_kms_key--><g id="link_aws_ec2_snapshot_aws_kms_key"><path codeLine="35" d="M471.98,346.59 C458.66,363.73 442.9817,383.9024 429.6617,401.0424 " fill="none" id="aws_ec2_snapshot-to-aws_kms_key" style="stroke:#1A83AF;stroke-width:2.0;"/><polygon fill="#1A83AF" points="425.98,405.78,434.661,401.1281,429.0481,401.832,428.3442,396.2191,425.98,405.78" style="stroke:#1A83AF;stroke-width:2.0;"/></g><!--link aws_ec2_volume to aws_ec2_snapshot--><g id="link_aws_ec2_volume_aws_ec2_snapshot"><path codeLine="36" d="M365.83,246.8 C392.31,263.94 425.7448,285.5871 452.1948,302.7271 " fill="none" id="aws_ec2_volume-to-aws_ec2_snapshot" style="stroke:#1A83AF;stroke-width:2.0;"/><polygon fill="#1A83AF" points="457.23,305.99,451.8524,297.7388,453.034,303.2709,447.5019,304.4525,457.23,305.99" style="stroke:#1A83AF;stroke-width:2.0;"/></g><!--link aws_ec2_volume to aws_kms_key--><g id="link_aws_ec2_volume_aws_kms_key"><path codeLine="37" d="M340.53,246.75 C346.38,270.53 357.44,312.02 371,346.16 C379.33,367.14 388.3795,384.7877 397.0495,400.4877 " fill="none" id="aws_ec2_volume-to-aws_kms_key" style="stroke:#1A83AF;stroke-width:2.0;"/><polygon fill="#1A83AF" points="399.95,405.74,399.1008,395.9278,397.5329,401.363,392.0977,399.7952,399.95,405.74" style="stroke:#1A83AF;stroke-width:2.0;"/></g><!--link aws_ec2_volume_type to aws_ec2_volume--><g id="link_aws_ec2_volume_type_aws_ec2_volume"><path codeLine="38" d="M403.4,147.01 C388.68,164.15 371.1904,184.5193 356.4704,201.6493 " fill="none" id="aws_ec2_volume_type-to-aws_ec2_volume" style="stroke:#1A83AF;stroke-width:2.0;"/><polygon fill="#1A83AF" points="352.56,206.2,361.4594,201.981,355.8187,202.4078,355.3919,196.7671,352.56,206.2" style="stroke:#1A83AF;stroke-width:2.0;"/></g><!--link aws_region to aws_ec2_instance--><g id="link_aws_region_aws_ec2_instance"><path codeLine="39" d="M289.97,47.22 C249.12,64.36 195.2926,86.9583 154.4726,104.0883 " fill="none" id="aws_region-to-aws_ec2_instance" style="stroke:#1A83AF;stroke-width:2.0;"/><polygon fill="#1A83AF" points="148.94,106.41,158.7867,106.6158,153.5505,104.4752,155.6911,99.239,148.94,106.41" style="stroke:#1A83AF;stroke-width:2.0;"/></g><!--link aws_region to aws_ec2_snapshot--><g id="link_aws_region_aws_ec2_snapshot"><path codeLine="40" d="M404.98,32.8 C455.14,40.4 519.82,59.43 553,106.79 C597.78,170.73 538.2536,260.9117 506.7336,301.2617 " fill="none" id="aws_region-to-aws_ec2_snapshot" style="stroke:#1A83AF;stroke-width:2.0;"/><polygon fill="#1A83AF" points="503.04,305.99,511.7326,301.3599,506.118,302.0497,505.4282,296.4351,503.04,305.99" style="stroke:#1A83AF;stroke-width:2.0;"/></g><!--link aws_region to aws_ec2_volume--><g id="link_aws_region_aws_ec2_volume"><path codeLine="41" d="M319.73,47.17 C308.08,62.29 293.37,84.47 287,106.79 C282.15,123.8 282.15,129.58 287,146.58 C293.37,168.91 304.4195,186.326 316.0695,201.456 " fill="none" id="aws_region-to-aws_ec2_volume" style="stroke:#1A83AF;stroke-width:2.0;"/><polygon fill="#1A83AF" points="319.73,206.21,317.4085,196.6387,316.6795,202.2483,311.0699,201.5194,319.73,206.21" style="stroke:#1A83AF;stroke-width:2.0;"/></g><!--link aws_region to aws_ec2_volume_type--><g id="link_aws_region_aws_ec2_volume_type"><path codeLine="42" d="M352.6,47.22 C367.32,64.36 384.8096,84.7293 399.5296,101.8593 " fill="none" id="aws_region-to-aws_ec2_volume_type" style="stroke:#1A83AF;stroke-width:2.0;"/><polygon fill="#1A83AF" points="403.44,106.41,400.6081,96.9771,400.1813,102.6178,394.5406,102.191,403.44,106.41" style="stroke:#1A83AF;stroke-width:2.0;"/></g><!--SRC=[ZP1DQm8n48Rl-oi2dWLNQTLBOHMalKYflPKYusRYXjrDbabKREb_h-j7YSdgzf3Bl0yppvjCScHOLdRFIYnNI2OokLGL49Gi8TAxgIuqiOuG80P3FvnfPLk1EPJ8dh7OefKf-CHx9jDSeJ6ixqGJIFCrwOtYf_MMG9b3XCewrBG0On9hIQus5XqPFbwDXF19VsbdmEFX8mQO9evqHdgz7e_7Fj9wwcxlFs8Xlv35xgVDjSL0CpXnfEvQreGZ6HIzv3STNu5pgTRimPczdPn88LtD5nbmlQjf0OLnpnYBXDhkAvm6hN0yucBO2B_SWjFwvnZip1BJ_b8gOq6boBwZ7oyo2YgJQTiGRNMnAV5ciAm5l3Gl3m_ttfHmBRKw3WEZxaSdJaQ3PFRPVV8EH85Z09_lHPvouzBBbbQuUUcfRflkkMeZTkdS2bwPtWF_UTWfy0i0]--></g></svg>

<svg xmlns="http://www.w3.org/2000/svg" width="604" height="451" viewBox="0 0 604 451"><rect width="192" height="39.789" x="7" y="106.79" fill="#3D176E" rx="2.5" ry="2.5" style="stroke:#000d19;stroke-width:.5"/><circle cx="22" cy="126.684" r="11" fill="#ADD1B2" style="stroke:#181818;stroke-width:1"/><path d="M24.969 132.325q-.578.297-1.219.438-.64.156-1.344.156-2.5 0-3.828-1.64-1.312-1.657-1.312-4.782t1.312-4.781q1.328-1.656 3.828-1.656.703 0 1.344.156.656.156 1.219.453v2.719q-.625-.579-1.219-.844-.594-.281-1.219-.281-1.343 0-2.031 1.078-.687 1.062-.687 3.156t.687 3.172q.688 1.062 2.031 1.062.625 0 1.219-.265.594-.281 1.219-.86z"/><text x="41" y="132.57" fill="#D9B8FF" font-family="Helvetica" font-size="17" textLength="150">aws_ec2_instance</text><rect width="197" height="39.789" x="388.5" y="306.37" fill="#3D176E" rx="2.5" ry="2.5" style="stroke:#000d19;stroke-width:.5"/><circle cx="403.5" cy="326.264" r="11" fill="#ADD1B2" style="stroke:#181818;stroke-width:1"/><path d="M406.469 331.905q-.578.297-1.219.438-.64.156-1.344.156-2.5 0-3.828-1.64-1.312-1.657-1.312-4.782t1.312-4.781q1.328-1.656 3.828-1.656.703 0 1.344.156.656.156 1.219.453v2.719q-.625-.579-1.219-.844-.594-.281-1.219-.281-1.344 0-2.031 1.078-.687 1.062-.687 3.156t.687 3.172q.688 1.062 2.031 1.062.625 0 1.219-.265.594-.281 1.219-.86z"/><text x="422.5" y="332.15" fill="#D9B8FF" font-family="Helvetica" font-size="17" textLength="155">aws_ec2_snapshot</text><rect width="185" height="39.789" x="243.5" y="206.58" fill="#3D176E" rx="2.5" ry="2.5" style="stroke:#000d19;stroke-width:.5"/><circle cx="258.5" cy="226.475" r="11" fill="#ADD1B2" style="stroke:#181818;stroke-width:1"/><path d="M261.469 232.115q-.578.297-1.219.438-.64.156-1.344.156-2.5 0-3.828-1.64-1.312-1.657-1.312-4.782t1.312-4.781q1.328-1.656 3.828-1.656.703 0 1.344.156.656.156 1.219.453v2.719q-.625-.578-1.219-.844-.594-.281-1.219-.281-1.344 0-2.031 1.078-.687 1.062-.687 3.156t.687 3.172q.688 1.062 2.031 1.062.625 0 1.219-.265.594-.281 1.219-.86z"/><text x="277.5" y="232.36" fill="#D9B8FF" font-family="Helvetica" font-size="17" textLength="143">aws_ec2_volume</text><rect width="231" height="39.789" x="304.5" y="106.79" fill="#3D176E" rx="2.5" ry="2.5" style="stroke:#000d19;stroke-width:.5"/><circle cx="319.5" cy="126.684" r="11" fill="#ADD1B2" style="stroke:#181818;stroke-width:1"/><path d="M322.469 132.325q-.578.297-1.219.438-.64.156-1.344.156-2.5 0-3.828-1.64-1.312-1.657-1.312-4.782t1.312-4.781q1.328-1.656 3.828-1.656.703 0 1.344.156.656.156 1.219.453v2.719q-.625-.579-1.219-.844-.594-.281-1.219-.281-1.344 0-2.031 1.078-.687 1.062-.687 3.156t.687 3.172q.688 1.062 2.031 1.062.625 0 1.219-.265.594-.281 1.219-.86z"/><text x="338.5" y="132.57" fill="#D9B8FF" font-family="Helvetica" font-size="17" textLength="189">aws_ec2_volume_type</text><rect width="158" height="39.789" x="332" y="406.16" fill="#3D176E" rx="2.5" ry="2.5" style="stroke:#000d19;stroke-width:.5"/><circle cx="347" cy="426.055" r="11" fill="#ADD1B2" style="stroke:#181818;stroke-width:1"/><path d="M349.969 431.695q-.578.297-1.219.438-.64.156-1.344.156-2.5 0-3.828-1.64-1.312-1.657-1.312-4.782t1.312-4.781q1.328-1.656 3.828-1.656.703 0 1.344.156.656.156 1.219.453v2.719q-.625-.578-1.219-.844-.594-.281-1.219-.281-1.344 0-2.031 1.078-.687 1.062-.687 3.156t.687 3.172q.688 1.062 2.031 1.062.625 0 1.219-.265.594-.281 1.219-.86z"/><text x="366" y="431.94" fill="#D9B8FF" font-family="Helvetica" font-size="17" textLength="116">aws_kms_key</text><rect width="137" height="39.789" x="267.5" y="7" fill="#3D176E" rx="2.5" ry="2.5" style="stroke:#000d19;stroke-width:.5"/><circle cx="282.5" cy="26.895" r="11" fill="#ADD1B2" style="stroke:#181818;stroke-width:1"/><path d="M285.469 32.535q-.578.297-1.219.438-.64.156-1.344.156-2.5 0-3.828-1.64-1.312-1.657-1.312-4.782t1.312-4.781q1.328-1.656 3.828-1.656.703 0 1.344.156.656.156 1.219.453v2.719q-.625-.578-1.219-.844-.594-.281-1.219-.281-1.344 0-2.031 1.078-.687 1.062-.687 3.156t.687 3.172q.688 1.062 2.031 1.062.625 0 1.219-.265.594-.281 1.219-.86z"/><text x="301.5" y="32.78" fill="#D9B8FF" font-family="Helvetica" font-size="17" textLength="95">aws_region</text><path fill="none" d="M149.03 147.01c40.85 17.14 94.677 39.738 135.497 56.868" style="stroke:#1a83af;stroke-width:2"/><path fill="#1A83AF" d="m290.06 206.2-6.751-7.171 2.14 5.236-5.236 2.14z" style="stroke:#1a83af;stroke-width:2"/><path fill="none" d="m471.98 346.59-42.318 54.452" style="stroke:#1a83af;stroke-width:2"/><path fill="#1A83AF" d="m425.98 405.78 8.681-4.652-5.613.704-.704-5.613z" style="stroke:#1a83af;stroke-width:2"/><path fill="none" d="M365.83 246.8c26.48 17.14 59.915 38.787 86.365 55.927" style="stroke:#1a83af;stroke-width:2"/><path fill="#1A83AF" d="m457.23 305.99-5.378-8.251 1.182 5.532-5.532 1.181z" style="stroke:#1a83af;stroke-width:2"/><path fill="none" d="M340.53 246.75c5.85 23.78 16.91 65.27 30.47 99.41 8.33 20.98 17.38 38.628 26.05 54.328" style="stroke:#1a83af;stroke-width:2"/><path fill="#1A83AF" d="m399.95 405.74-.85-9.812-1.567 5.435-5.435-1.568z" style="stroke:#1a83af;stroke-width:2"/><path fill="none" d="M403.4 147.01c-14.72 17.14-32.21 37.51-46.93 54.64" style="stroke:#1a83af;stroke-width:2"/><path fill="#1A83AF" d="m352.56 206.2 8.9-4.219-5.641.427-.427-5.64z" style="stroke:#1a83af;stroke-width:2"/><path fill="none" d="M289.97 47.22c-40.85 17.14-94.677 39.738-135.497 56.868" style="stroke:#1a83af;stroke-width:2"/><path fill="#1A83AF" d="m148.94 106.41 9.847.206-5.237-2.14 2.141-5.237z" style="stroke:#1a83af;stroke-width:2"/><path fill="none" d="M404.98 32.8c50.16 7.6 114.84 26.63 148.02 73.99 44.78 63.94-14.746 154.122-46.266 194.472" style="stroke:#1a83af;stroke-width:2"/><path fill="#1A83AF" d="m503.04 305.99 8.693-4.63-5.615.69-.69-5.615z" style="stroke:#1a83af;stroke-width:2"/><path fill="none" d="M319.73 47.17c-11.65 15.12-26.36 37.3-32.73 59.62-4.85 17.01-4.85 22.79 0 39.79 6.37 22.33 17.42 39.746 29.07 54.876" style="stroke:#1a83af;stroke-width:2"/><path fill="#1A83AF" d="m319.73 206.21-2.322-9.571-.728 5.61-5.61-.73z" style="stroke:#1a83af;stroke-width:2"/><path fill="none" d="M352.6 47.22c14.72 17.14 32.21 37.51 46.93 54.64" style="stroke:#1a83af;stroke-width:2"/><path fill="#1A83AF" d="m403.44 106.41-2.832-9.433-.427 5.64-5.64-.426z" style="stroke:#1a83af;stroke-width:2"/></svg>
